img/svg/Plane.svg

<svg width="54" height="54" viewBox="0 0 54 54" fill="none" xmlns="http://www.w3.org/2000/svg">
<path fill-rule="evenodd" clip-rule="evenodd" d="M32.7061 15.3539L7.74406 10.5874C7.1069 10.4595 6.65536 10.3801 5.95309 10.2549C3.43455 9.80588 4.00391 9.48341 2.01502 11.4721C-0.951857 14.4388 0.513781 14.3043 4.17117 16.1508L22.885 25.042L13.695 34.2994L9.08303 33.004C3.65977 31.5826 4.29303 31.0918 2.01502 33.3697C-0.421307 35.806 -0.300646 35.9364 4.30369 38.314L6.51814 39.5502C7.55424 40.1291 11.2188 42.022 11.7037 42.4604C12.0539 42.777 12.2843 43.41 12.5586 43.8616C14.0809 46.3673 15.8091 49.9057 17.4337 52.6562C18.6497 54.7151 19.5988 53.3445 20.7947 52.1486C22.8916 50.0518 22.7374 50.5105 21.1751 45.1989C20.9385 44.3944 20.7337 43.5707 20.5118 42.8098C20.2845 42.0308 20.0099 41.1977 19.8325 40.4367L29.0904 31.247C29.3676 31.7421 29.4962 32.1438 29.7405 32.6526L38.6805 51.3171C39.8133 53.617 39.9055 54.9365 42.6269 52.2149C44.6698 50.1719 44.4747 50.8832 43.6224 46.6409L38.8113 21.4587L50.8582 9.08604C51.9945 7.69967 53.543 5.50525 53.543 3.27709C53.543 1.75986 52.3459 0.622803 50.6232 0.622803C47.5838 0.622803 43.1128 4.88137 40.8352 7.15889L34.7301 13.2637C34.1654 13.8284 33.0955 14.7725 32.7061 15.3539V15.3539Z" fill="white"/>
</svg>

<svg width="54" height="54" fill="none" xmlns="http://www.w3.org/2000/svg"><path fill-rule="evenodd" clip-rule="evenodd" d="M32.706 15.354L7.744 10.587c-.637-.127-1.089-.207-1.79-.332-2.52-.45-1.95-.772-3.939 1.217-2.967 2.967-1.501 2.832 2.156 4.679l18.714 8.891-9.19 9.257-4.612-1.295c-5.423-1.421-4.79-1.912-7.068.366-2.436 2.436-2.316 2.566 2.289 4.944l2.214 1.236c1.036.58 4.7 2.472 5.186 2.91.35.317.58.95.855 1.402 1.522 2.505 3.25 6.044 4.875 8.794 1.216 2.06 2.165.688 3.36-.507 2.098-2.097 1.943-1.639.381-6.95-.236-.805-.441-1.628-.663-2.39-.227-.778-.502-1.611-.68-2.372l9.258-9.19c.278.495.406.897.65 1.406l8.94 18.664c1.133 2.3 1.226 3.62 3.947.898 2.043-2.043 1.848-1.332.995-5.574l-4.81-25.182L50.857 9.086c1.137-1.386 2.685-3.58 2.685-5.809 0-1.517-1.197-2.654-2.92-2.654-3.04 0-7.51 4.258-9.788 6.536l-6.105 6.105c-.565.564-1.634 1.509-2.024 2.09z" fill="#fff"/></svg>
